!!!!SEGMENT: pl-cz--ii-188--004_orllowski-michall--missa-ex-g-domine-deus.krn
!!!cenid: 17xx:1008
!!!COM: Orłowski, Michał
!!!COM-rismid: pe30020336
!!!CDT: ~1700-~1799
!!!CNT:
!!!OPR: Missa ex G
!!!OTL: Domine Deus
!!!OMV: 004
!!!PDT:
!!!AGN: Sacred; Mass
!!!SMS-siglum: PL-CZ
!!!SMS-shelfmark: II-188
!!!SMS-shelfwork: 001-004 M
!!!SMS-variant:
!!!SMS-altvar:
!!!NIFC-rismid: 300000944
!!!URL-scan: http://repozytorium.nifc.pl/skany/pl-cz-nut--ii-188
!!!ONB-nifc: UWAGA: części Mszy: Kyrie, Gloria, Laudamus, Domine deus, Qui tollis, Quoniam,
!!!AIN: 4 empty 2 violn 2 vox
!!!key:
**kern	**dynam	**kern	**dynam	**kern	**dynam	**kern	**text	**kern	**text	**kern	**text	**kern	**kern
*part8	*part8	*part7	*part7	*part6	*part6	*part5	*part5	*part4	*part4	*part3	*part3	*part2	*part1
*staff8	*	*staff7	*	*staff6	*	*staff5	*staff5	*staff4	*staff4	*staff3	*staff3	*staff2	*staff1
*group	*group	*group3	*group3	*group3	*group3	*group2	*group2	*group2	*group2	*group2	*group2	*group1	*group1
*Iempty	*	*Ivioln	*	*Ivioln	*	*Iempty	*	*Ivox	*	*Ivox	*	*Iempty	*Iempty
*I"Fundamento.	*	*I"Violino Secundo.	*	*I"Violino Primo.	*	*I"Baſso.	*	*I"Canto 2do:	*	*I"Canto 1mo:	*	*I"Cornu 2do in G.	*I"Cornu 1mo.. in G.
*I'fund	*	*I'vl 2	*	*I'vl 1	*	*I'B	*	*I'S 2	*	*I'S 1	*	*I'cor 2	*I'cor 1
*clefF4	*	*clefG2	*	*clefG2	*	*clefF4	*	*clefC1	*	*clefC1	*	*clefG2	*clefG2
*	*	*	*	*	*	*	*	*	*	*	*	*ITrd3c5	*ITrd3c5
*k[f#]	*	*k[f#]	*	*k[f#]	*	*k[f#]	*	*k[f#]	*	*k[f#]	*	*k[f#]	*k[f#]
*G:	*	*G:	*	*G:	*	*G:	*	*G:	*	*G:	*	*G:	*G:
*M3/4	*	*M3/4	*	*M3/4	*	*M3/4	*	*M3/4	*	*M3/4	*	*M3/4	*M3/4
=1	=1	=1	=1	=1	=1	=1	=1	=1	=1	=1	=1	=1	=1
*all\right	*	*	*	*	*	*	*	*	*	*	*	*	*
!LO:TX:t=P:problem=mixed beam	!	!	!	!	!	!	!	!	!	!	!	!	!
!LO:TX:a:i:t=Allo.	!	!LO:TX:a:i:t=Allo	!	!	!	!	!	!	!	!	!	!	!
!	!	!	!	!LO:TX:a:i:t=Allo.	!	!LO:TX:a:i:t=Allo.	!	!LO:TX:a:i:t=Allo.	!	!LO:TX:a:i:t=allo.	!	!LO:TX:a:i:t=allo.	!LO:TX:a:i:t=Allo.
!	!LO:DY:b:t=pia.	!	!LO:DY:a:t=pia.	!	!LO:DY:b:t=pia.	!	!	!	!	!	!	!	!
8GG/L	p	4d 4B/	p	8g/L	p	0.r	.	0.r	.	8g/	Do-	0.r	0.r
8G\J	.	.	.	16g/L	.	.	.	.	.	16g/	-mi-	.	.
.	.	.	.	16g/JJ	.	.	.	.	.	16g/	-ne	.	.
*	*	*	*	*	*	*	*	*	*	*all\right	*ij	*	*
4GG/	.	4d 4B/	.	8b/L	.	.	.	.	.	8b\	Do-	.	.
.	.	.	.	16b/L	.	.	.	.	.	16b\	-mi-	.	.
.	.	.	.	16b/JJ	.	.	.	.	.	16b\	-ne	.	.
4r	.	4r	.	8dd\L	.	.	.	.	.	8dd\	Do-	.	.
.	.	.	.	16dd\L	.	.	.	.	.	16dd\	-mi-	.	.
.	.	.	.	16dd\JJ	.	.	.	.	.	16dd\	-ne	.	.
*	*	*	*	*	*	*	*	*	*	*	*Xij	*	*
=2	=2	=2	=2	=2	=2	=2	=2	=2	=2	=2	=2	=2	=2
8r	.	8r	.	4gg\	.	.	.	.	.	4gg\	De-	.	.
!LO:TX:t=P:problem=mixed beam	!	!	!	!	!	!	!	!	!	!	!	!	!
8G\L	.	8b/L	.	.	.	.	.	.	.	.	.	.	.
8GG/	.	8b/	.	4dd\	.	.	.	.	.	4dd\	-us	.	.
8G\	.	8b/	.	.	.	.	.	.	.	.	.	.	.
8GG/	.	8g/	.	8r	.	.	.	.	.	4r	.	.	.
8G\J	.	8g/J	.	8b\	.	.	.	.	.	.	.	.	.
=3	=3	=3	=3	=3	=3	=3	=3	=3	=3	=3	=3	=3	=3
*tremolo	*	*	*	*	*	*	*	*	*	*	*	*	*
8C/L	.	8a/L	.	8cc\L	.	.	.	.	.	8cc\	De-	.	.
8C/	.	8g/	.	8b\	.	.	.	.	.	8b\	-us	.	.
8C/	.	8f#/	.	8a\	.	.	.	.	.	8a\L	Rex	.	.
8C/	.	8cc/	.	8ee\	.	.	.	.	.	8ee\	.	.	.
8C/	.	8b/	.	8dd\	.	.	.	.	.	8dd\J	.	.	.
8C/J	.	8a/J	.	8cc\J	.	.	.	.	.	8cc\	Ce-	.	.
=4	=4	=4	=4	=4	=4	=4	=4	=4	=4	=4	=4	=4	=4
*	*	*Xtuplet	*	*Xtuplet	*	*	*	*	*	*	*	*	*
!	!	!	!	!	!	!	!	!	!	!LO:TUP:a:problem=klamra łukowa	!	!	!
8G\L	.	12d/L	.	12b/L	.	.	.	.	.	12b\L	-les-	.	.
.	.	12c/	.	12a/	.	.	.	.	.	12a\	.	.	.
8G\	.	.	.	.	.	.	.	.	.	.	.	.	.
.	.	12B/J	.	12g/J	.	.	.	.	.	12g\J	.	.	.
8D\	.	4B/	.	4g/	.	.	.	.	.	4g/	-tis	.	.
8BB\J	.	.	.	.	.	.	.	.	.	.	.	.	.
4GG/	.	4r	.	4r	.	.	.	.	.	4r	.	.	.
=5	=5	=5	=5	=5	=5	=5	=5	=5	=5	=5	=5	=5	=5
!	!LO:DY:b:t=for.	!	!LO:DY:a:t=for.	!	!	!	!	!	!	!	!	!	!
!	!	!	!	!	!LO:DY:b:t=for&colon;	!	!	!	!	!	!	!	!
8GG/L	f	2.d 2.B/	f	8g/L	f	0.r	.	0.r	.	0.r	.	0.r	0.r
16GG/L	.	.	.	16g/L	.	.	.	.	.	.	.	.	.
16AA/JJ	.	.	.	16a/JJ	.	.	.	.	.	.	.	.	.
8BB/L	.	.	.	8b\L	.	.	.	.	.	.	.	.	.
8C/J	.	.	.	8cc\J	.	.	.	.	.	.	.	.	.
4D/	.	.	.	4dd\	.	.	.	.	.	.	.	.	.
*	*	*	*	*custos:ee	*	*	*	*	*	*	*	*	*
!	!	!	!	!LO:LB:g=original	!	!	!	!	!	!	!	!	!
=6	=6	=6	=6	=6	=6	=6	=6	=6	=6	=6	=6	=6	=6
*Xtremolo	*	*	*	*	*	*	*	*	*	*	*	*	*
8E\L	.	2.d 2.B/	.	8ee\L	.	.	.	.	.	.	.	.	.
8E\J	.	.	.	8ee\J	.	.	.	.	.	.	.	.	.
*2\right	*	*	*	*2\right	*	*	*	*	*	*	*	*	*
2D\	.	.	.	2dd\	.	.	.	.	.	.	.	.	.
=7	=7	=7	=7	=7	=7	=7	=7	=7	=7	=7	=7	=7	=7
8C/L	.	2.d 2.A/	.	8cc\L	.	.	.	.	.	.	.	.	.
16C/L	.	.	.	16cc\L	.	.	.	.	.	.	.	.	.
16BB/JJ	.	.	.	16b\JJ	.	.	.	.	.	.	.	.	.
8AA/L	.	.	.	8a\L	.	.	.	.	.	.	.	.	.
8BB/	.	.	.	8ee\	.	.	.	.	.	.	.	.	.
8C/	.	.	.	8dd\	.	.	.	.	.	.	.	.	.
8D/J	.	.	.	8cc\J	.	.	.	.	.	.	.	.	.
!LO:LB:g=original	!	!	!	!	!	!	!	!	!	!	!	!	!
=8	=8	=8	=8	=8	=8	=8	=8	=8	=8	=8	=8	=8	=8
8BB/L	.	2.d 2.B/	.	12b/L	.	.	.	.	.	.	.	.	.
.	.	.	.	12a/	.	.	.	.	.	.	.	.	.
16AA/L	.	.	.	.	.	.	.	.	.	.	.	.	.
.	.	.	.	12g/J	.	.	.	.	.	.	.	.	.
16GG/JJ	.	.	.	.	.	.	.	.	.	.	.	.	.
2GG/	.	.	.	2g/	.	.	.	.	.	.	.	.	.
!	!	!LO:LB:g=original	!	!	!	!	!	!	!	!	!	!	!
=9	=9	=9	=9	=9	=9	=9	=9	=9	=9	=9	=9	=9	=9
8GG/L	.	2.d 2.B/	.	8g/L	.	0.r	.	0.r	.	0.r	.	0.r	0.r
16GG/L	.	.	.	16g/L	.	.	.	.	.	.	.	.	.
16AA/JJ	.	.	.	16a/JJ	.	.	.	.	.	.	.	.	.
8BB/L	.	.	.	8b\L	.	.	.	.	.	.	.	.	.
8C/J	.	.	.	8cc\J	.	.	.	.	.	.	.	.	.
4D/	.	.	.	4dd\	.	.	.	.	.	.	.	.	.
=10	=10	=10	=10	=10	=10	=10	=10	=10	=10	=10	=10	=10	=10
8E\L	.	2.d 2.B/	.	8ee\L	.	.	.	.	.	.	.	.	.
8E\J	.	.	.	8ee\J	.	.	.	.	.	.	.	.	.
2D\	.	.	.	2dd\	.	.	.	.	.	.	.	.	.
=11	=11	=11	=11	=11	=11	=11	=11	=11	=11	=11	=11	=11	=11
8C/L	.	2.d 2.A/	.	8cc\L	.	.	.	.	.	.	.	.	.
16C/L	.	.	.	16cc\L	.	.	.	.	.	.	.	.	.
16BB/JJ	.	.	.	16b\JJ	.	.	.	.	.	.	.	.	.
8AA/L	.	.	.	8a\L	.	.	.	.	.	.	.	.	.
8BB/	.	.	.	8ee\	.	.	.	.	.	.	.	.	.
8C/	.	.	.	8dd\	.	.	.	.	.	.	.	.	.
8D/J	.	.	.	8cc\J	.	.	.	.	.	.	.	.	.
=12	=12	=12	=12	=12	=12	=12	=12	=12	=12	=12	=12	=12	=12
4BB/	.	2.d 2.B/	.	12b/L	.	.	.	.	.	.	.	.	.
.	.	.	.	12a/	.	.	.	.	.	.	.	.	.
.	.	.	.	12g/J	.	.	.	.	.	.	.	.	.
2GG/	.	.	.	2g/	.	.	.	.	.	.	.	.	.
!	!	!	!	!LO:LB:g=original	!	!	!	!	!	!	!	!	!
=13	=13	=13	=13	=13	=13	=13	=13	=13	=13	=13	=13	=13	=13
*	*	*^	*	*	*	*	*	*	*	*	*	*	*
*	*	*all\right	*all\right	*	*	*	*	*	*	*	*	*	*	*
*tremolo	*	*tremolo	*2\right	*	*	*	*all\right	*	*all\right	*	*	*	*	*all\right
!	!	!	!	!	!	!	!	!	!	!	!LO:TX:a:i:t=Tutti	!	!	!
8D\L	.	8a/L	8f#\L	.	8cc\	.	4D\	De-	4a\	De-	4cc\	De-	4d/	4a\
8D\	.	8a/	8f#\	.	4cc\	.	.	.	.	.	.	.	.	.
8D\	.	8a/	8f#\	.	.	.	4D\	-us	4a\	-us	4cc\	-us	4d/	4a\
8D\	.	8a/	8f#\	.	8a\	.	.	.	.	.	.	.	.	.
8D\	.	8a/	8f#\	.	16g/LL	.	4r	.	4r	.	4r	.	4r	4r
.	.	.	.	.	16f#/	.	.	.	.	.	.	.	.	.
8D\J	.	8a/J	8f#\J	.	16e/	.	.	.	.	.	.	.	.	.
.	.	.	.	.	16d/JJ	.	.	.	.	.	.	.	.	.
*	*	*v	*v	*	*	*	*	*	*	*	*	*	*	*
!	!	!	!	!	!	!	!	!	!	!LO:LB:g=original	!	!	!
=14	=14	=14	=14	=14	=14	=14	=14	=14	=14	=14	=14	=14	=14
*	*	*	*	*	*	*	*	*	*	*	*	*all\right	*
8G\L	.	8b 8d/L	.	16g/LL	.	4G\	Pa-	4b\	Pa-	4dd\	Pa-	4g\	4b\
.	.	.	.	16a/	.	.	.	.	.	.	.	.	.
8G\	.	8b 8d/	.	16b/	.	.	.	.	.	.	.	.	.
.	.	.	.	16cc/JJ	.	.	.	.	.	.	.	.	.
8G\	.	8b 8d/	.	16dd\LL	.	4G\	-ter	4b\	-ter	4dd\	-ter	4g\	4b\
.	.	.	.	16cc\	.	.	.	.	.	.	.	.	.
8G\	.	8b 8d/	.	16ee\	.	.	.	.	.	.	.	.	.
.	.	.	.	16cc\JJ	.	.	.	.	.	.	.	.	.
8G\	.	8b 8d/	.	4dd\	.	4r	.	4r	.	4r	.	4r	4r
8G\J	.	8b 8d/J	.	.	.	.	.	.	.	.	.	.	.
=15	=15	=15	=15	=15	=15	=15	=15	=15	=15	=15	=15	=15	=15
*	*	*^	*	*	*	*	*	*	*	*	*	*	*
*	*	*	*	*	*	*	*	*	*	*ij	*	*	*	*
8D\L	.	8a/L	8f#\L	.	8cc\	.	4D\	De-	4a\	De-	4cc\	De-	4d/	4a\
8D\	.	8a/	8f#\	.	4cc\	.	.	.	.	.	.	.	.	.
8D\	.	8a/	8f#\	.	.	.	4D\	-us	4a\	-us	4cc\	-us	4d/	4a\
8D\	.	8a/	8f#\	.	8a/	.	.	.	.	.	.	.	.	.
8D\	.	8a/	8f#\	.	16g/LL	.	4r	.	4r	.	4r	.	4r	4r
.	.	.	.	.	16f#/	.	.	.	.	.	.	.	.	.
8D\J	.	8a/J	8f#\J	.	16e/	.	.	.	.	.	.	.	.	.
.	.	.	.	.	16d/JJ	.	.	.	.	.	.	.	.	.
*	*	*v	*v	*	*	*	*	*	*	*	*	*	*	*
=16	=16	=16	=16	=16	=16	=16	=16	=16	=16	=16	=16	=16	=16
8G\L	.	8b 8d/L	.	16g\LL	.	4G\	Pa-	4b\	Pa-	4dd\	Pa-	4g\	4b\
.	.	.	.	16a\	.	.	.	.	.	.	.	.	.
8G\	.	8b 8d/	.	16b\	.	.	.	.	.	.	.	.	.
.	.	.	.	16cc\JJ	.	.	.	.	.	.	.	.	.
8G\	.	8b 8d/	.	16dd\LL	.	4G\	-ter	4b\	-ter	4dd\	-ter	4g\	4b\
*	*	*	*	*	*	*	*	*	*Xij	*	*	*	*
.	.	.	.	16cc\	.	.	.	.	.	.	.	.	.
8G\	.	8b 8d/	.	16ee\	.	.	.	.	.	.	.	.	.
.	.	.	.	16cc\JJ	.	.	.	.	.	.	.	.	.
8G\	.	8b 8d/	.	4dd\	.	4r	.	4r	.	4r	.	4r	4r
8G\J	.	8b 8d/J	.	.	.	.	.	.	.	.	.	.	.
=17	=17	=17	=17	=17	=17	=17	=17	=17	=17	=17	=17	=17	=17
!LO:TX:t=P:problem=mixed beam	!	!	!	!	!	!	!	!	!	!	!	!	!
8G\L	.	16d/LL	.	16b/LL	.	8G\L	O-	8g\L	O-	8b\L	O-	8g\L	8b\L
.	.	16B/	.	16g/	.	.	.	.	.	.	.	.	.
8c\	.	16e/	.	16cc/	.	8c\J	.	8a\J	.	16cc\L	.	16a\L	16cc\L
.	.	16c/JJ	.	16a/JJ	.	.	.	.	.	16a\JJ	.	16d\JJ	16a\JJ
8d\	.	4B/	.	4g/	.	4d\	-mni-	4b\	-mni-	4g/	-mni-	4B/	4g\
8d\	.	.	.	.	.	.	.	.	.	.	.	.	.
8D/	.	4AT/	.	4f#t/	.	4D/	-po-	4aT\	-po-	4f#t/	-po-	4dT/	4aT\
8D/J	.	.	.	.	.	.	.	.	.	.	.	.	.
=18	=18	=18	=18	=18	=18	=18	=18	=18	=18	=18	=18	=18	=18
*	*	*	*	*tremolo	*	*	*	*	*	*	*	*	*
!	!LO:DY:b:t=pia	!	!	!	!LO:DY:b:t=pia	!	!	!	!	!	!	!	!
8G\L	p	8B/L	.	8g/L	p	4G\	-tens	4g\	-tens	4g/	-tens	4g\	4b\
8G\	.	8B/	.	8g/	.	.	.	.	.	.	.	.	.
!	!	!	!	!	!	!	!	!	!	!LO:TX:a:i:t=Solo	!	!	!
8G\	.	8B/	.	8g/	.	4r	.	4r	.	4g/	De-	4r	4r
8G\	.	8B/	.	8g/	.	.	.	.	.	.	.	.	.
8G\	.	8B/	.	8g/	.	4r	.	4r	.	(>8b\L	-us	4r	4r
8G\J	.	8B/J	.	8g/J	.	.	.	.	.	8g\J)	.	.	.
!LO:LB:g=original	!	!	!	!	!	!	!	!	!	!	!	!	!
=19	=19	=19	=19	=19	=19	=19	=19	=19	=19	=19	=19	=19	=19
!	!	!	!	!	!	!	!	!LO:TX:a:t=3	!	!	!	!	!
8F#\L	.	8d/L	.	8dd\L	.	1.r	.	1.r	.	4dd\	Pa-	1.r	1.r
8F#\	.	8d/	.	8dd\	.	.	.	.	.	.	.	.	.
*	*	*	*	*	*	*	*	*	*	*2\right	*	*	*
8F#\	.	8d/	.	8dd\	.	.	.	.	.	2dd\	-ter	.	.
8F#\J	.	8d/	.	8dd\	.	.	.	.	.	.	.	.	.
8G\L	.	8d/	.	8dd\	.	.	.	.	.	.	.	.	.
8G#X\J	.	8d/J	.	8dd\J	.	.	.	.	.	.	.	.	.
!	!	!	!	!LO:LB:g=original	!	!	!	!	!	!	!	!	!
=20	=20	=20	=20	=20	=20	=20	=20	=20	=20	=20	=20	=20	=20
*	*	*^	*	*	*	*	*	*	*	*	*	*	*
4A\	.	4e/	4c#X\	.	8ee\L	.	.	.	.	.	8ee\L	O-	.	.
.	.	.	.	.	8gg\	.	.	.	.	.	8gg\	.	.	.
4r	.	4r	4ryy	.	8ee\	.	.	.	.	.	8ff#\	.	.	.
.	.	.	.	.	8dd\	.	.	.	.	.	8ee\J	.	.	.
4G#X\	.	4e/	4B\	.	8cc#X\	.	.	.	.	.	8cc#X\L	-mni-	.	.
.	.	.	.	.	8dd\J	.	.	.	.	.	8dd\J	.	.	.
*	*	*v	*v	*	*	*	*	*	*	*	*	*	*	*
!	!	!LO:LB:g=original	!LO:LB:g=original	!	!	!	!	!	!	!	!	!	!
=21	=21	=21	=21	=21	=21	=21	=21	=21	=21	=21	=21	=21	=21
!	!	!	!	!	!	!	!	!	!	!LO:TUP:a:problem=klamra łukowa	!	!	!
8A\L	.	8c#X/	.	12cc#X/L	.	2.r	.	2.r	.	12cc#X\L	-po-	2.r	2.r
.	.	.	.	12b/	.	.	.	.	.	12b\	.	.	.
8E\	.	4A/	.	.	.	.	.	.	.	.	.	.	.
.	.	.	.	12a/J	.	.	.	.	.	12a\J	.	.	.
8C#X\	.	.	.	4a/	.	.	.	.	.	4a\	-tens	.	.
8E\J	.	4A/	.	.	.	.	.	.	.	.	.	.	.
4AA/	.	.	.	4r	.	.	.	.	.	4r	.	.	.
.	.	8A/	.	.	.	.	.	.	.	.	.	.	.
*	*	*	*	*	*	*	*	*	*	*	*	*	*custos:a
!	!	!	!	!	!	!	!	!LO:LB:g=original	!	!LO:LB:g=original	!	!	!
!	!	!	!	!	!	!	!	!	!	!	!	!	!LO:LB:g=original
=22	=22	=22	=22	=22	=22	=22	=22	=22	=22	=22	=22	=22	=22
*	*	*^	*	*	*	*	*	*	*	*	*	*	*
!	!LO:DY:b:t=for.	!	!	!LO:DY:b:t=for	!	!	!	!	!	!	!LO:TX:a:i:t=Tutti	!	!	!
8D\L	f	8a/L	8f#\L	f	16dd\LL	.	4D/	Pa-	4a\	Pa-	4ff#\	Pa-	4d/	4a\
.	.	.	.	.	16ee\	.	.	.	.	.	.	.	.	.
8D\	.	8a/	8f#\	.	16ff#\	.	.	.	.	.	.	.	.	.
!	!	!	!	!	!	!LO:DY:b:t=for.	!	!	!	!	!	!	!	!
.	.	.	.	.	16gg#X\JJ	f	.	.	.	.	.	.	.	.
8D\	.	8a/	8f#\	.	8aa\L	.	4D/	-ter	4a\	-ter	4ff#\	-ter	4d/	4a\
8D\	.	8a/	8f#\	.	8gg#X\	.	.	.	.	.	.	.	.	.
8D\	.	8a/	8f#\	.	8aa\	.	4r	.	4r	.	4r	.	4r	4r
8D\J	.	8a/J	8f#\J	.	8bb\J	.	.	.	.	.	.	.	.	.
!	!	!	!	!	!	!	!LO:LB:g=original	!	!	!	!	!	!	!
=23	=23	=23	=23	=23	=23	=23	=23	=23	=23	=23	=23	=23	=23	=23
*	*	*	*tremolo	*	*	*	*	*	*	*	*	*	*	*2\right
8D\L	.	8a/L	8g\L	.	4.aa\	.	4.D\	Om-	4.a\	Om-	4.ff#\	O-	2d/	2a\
8D\	.	8a/	8g\	.	.	.	.	.	.	.	.	.	.	.
8D\	.	8a/	8g\	.	.	.	.	.	.	.	.	.	.	.
8D\J	.	8a/J	8g\J	.	24ff#\LL	.	8D\	-ni-	8a\	-ni-	8ff#\	-mni-	.	.
.	.	.	.	.	24ggn\	.	.	.	.	.	.	.	.	.
.	.	.	.	.	24ee\JJ	.	.	.	.	.	.	.	.	.
*	*	*Xtremolo	*Xtremolo	*	*	*	*	*	*	*	*	*	*	*
!LO:TX:t=P:problem=mixed beam	!	!	!	!	!	!	!LO:TX:t=P:problem=mixed beam	!	!	!	!	!	!	!
8A\L	.	8a/L	8e\L	.	16dd\LL	.	8A\L	-po-	4cc#X\	-po-	4ee\	-po-	4a\	4a\
.	.	.	.	.	16cc#X\	.	.	.	.	.	.	.	.	.
8AA/J	.	8a/J	8e\J	.	16b\	.	8AA/J	.	.	.	.	.	.	.
.	.	.	.	.	16a\JJ	.	.	.	.	.	.	.	.	.
=24	=24	=24	=24	=24	=24	=24	=24	=24	=24	=24	=24	=24	=24	=24
*	*	*tremolo	*tremolo	*	*	*	*	*	*	*	*	*	*	*
!	!	!	!	!	!	!	!	!	!	!	!	!	!LO:TX:t=P:problem=t. 24-25 zapisane jako repetycja	!
8D\L	.	8a/L	8f#\L	.	16dd\LL	.	4D\	-tens	4dd\	-tens	4ff#\	-tens	4d/yy	4a\
.	.	.	.	.	16ee\	.	.	.	.	.	.	.	.	.
8D\	.	8a/	8f#\	.	16ff#\	.	.	.	.	.	.	.	.	.
.	.	.	.	.	16gg#X\JJ	.	.	.	.	.	.	.	.	.
8D\	.	8a/	8f#\	.	8aa\L	.	4D\	Pa-	4a\	pa-	4ff#\	Pa-	4d/yy	4a\
8D\	.	8a/	8f#\	.	8gg#\	.	.	.	.	.	.	.	.	.
8D\	.	8a/	8f#\	.	8aa\	.	4D\	-ter	4a\	-ter	4ff#\	-ter	4ryy	4r
8D\J	.	8a/J	8f#\J	.	8bb\J	.	.	.	.	.	.	.	.	.
=25	=25	=25	=25	=25	=25	=25	=25	=25	=25	=25	=25	=25	=25	=25
*	*	*	*tremolo	*	*	*	*	*	*	*	*	*	*	*
8D\L	.	8a/L	8g\L	.	4.aa\	.	4.D\	Om-	4.a\	Om-	4.ff#\	o-	2d/yy	2a\
8D\	.	8a/	8g\	.	.	.	.	.	.	.	.	.	.	.
8D\	.	8a/	8g\	.	.	.	.	.	.	.	.	.	.	.
8D\J	.	8a/J	8g\J	.	24ff#\LL	.	8D\	-ni-	8a\	-ni-	8ff#\	-mni-	.	.
.	.	.	.	.	24ggn\	.	.	.	.	.	.	.	.	.
.	.	.	.	.	24ee\JJ	.	.	.	.	.	.	.	.	.
*	*	*Xtremolo	*Xtremolo	*	*	*	*	*	*	*	*	*	*	*
!LO:TX:t=P:problem=mixed beam	!	!	!	!	!	!	!LO:TX:t=P:problem=mixed beam	!	!	!	!	!	!	!
8A\L	.	8a/L	8e\L	.	16dd\LL	.	8A\L	-po-	4cc#X\	-po-	4ee\	-po-	4a\yy	4a\
.	.	.	.	.	16cc#X\	.	.	.	.	.	.	.	.	.
8AA/J	.	8a/J	8e\J	.	16b\	.	8AA/J	.	.	.	.	.	.	.
.	.	.	.	.	16a\JJ	.	.	.	.	.	.	.	.	.
*	*	*v	*v	*	*	*	*	*	*	*	*	*	*	*
!	!	!	!	!	!	!	!	!	!	!	!	!LO:LB:g=original	!
=26	=26	=26	=26	=26	=26	=26	=26	=26	=26	=26	=26	=26	=26
8D\L	.	16d/LL	.	16dd\LL	.	4D\	-tens	4dd\	-tens	4ff#\	-tens	4d/	4a\
.	.	16a/	.	16ff#\	.	.	.	.	.	.	.	.	.
8D\	.	16f#/	.	16aa\	.	.	.	.	.	.	.	.	.
.	.	16a/JJ	.	16ff#\JJ	.	.	.	.	.	.	.	.	.
8D\	.	16d/LL	.	8dd\L	.	4D\	Do-	4a\	Do-	4ff#\	Do-	4d/	4a\
.	.	16a/	.	.	.	.	.	.	.	.	.	.	.
8D\	.	16f#/	.	8ddd\	.	.	.	.	.	.	.	.	.
.	.	16a/JJ	.	.	.	.	.	.	.	.	.	.	.
8D\	.	16d/LL	.	8aa\	.	8D\L	-mi-	8a\	-mi-	8ff#\	-mi-	4d/	4a\
.	.	16a/	.	.	.	.	.	.	.	.	.	.	.
8D\J	.	16f#/	.	8ff#\J	.	8D\J	-ne	8a\	-ne	8ff#\	-ne	.	.
.	.	16a/JJ	.	.	.	.	.	.	.	.	.	.	.
!	!	!	!	!LO:LB:g=original	!	!	!	!	!	!	!	!	!
=27	=27	=27	=27	=27	=27	=27	=27	=27	=27	=27	=27	=27	=27
*	*	*	*	*	*	*	*	*2\right	*	*	*	*2\right	*
8G\L	.	16d/LL	.	16dd\LL	.	2G\	Fi-	2b\	Fi-	2gg\	Fi-	2a\	2b\
.	.	16b/	.	16gg\	.	.	.	.	.	.	.	.	.
8G\	.	16g/	.	16bb\	.	.	.	.	.	.	.	.	.
.	.	16b/JJ	.	16gg\JJ	.	.	.	.	.	.	.	.	.
8G\	.	16d/LL	.	8dd\L	.	.	.	.	.	.	.	.	.
.	.	16b/	.	.	.	.	.	.	.	.	.	.	.
8G\	.	16g/	.	8ddd\	.	.	.	.	.	.	.	.	.
.	.	16b/JJ	.	.	.	.	.	.	.	.	.	.	.
8G\	.	16d/LL	.	8bb\	.	4G\	-li	4b\	-li	4gg\	-li	4g\	4b\
.	.	16b/	.	.	.	.	.	.	.	.	.	.	.
8G\J	.	16g/	.	8gg\J	.	.	.	.	.	.	.	.	.
.	.	16b/JJ	.	.	.	.	.	.	.	.	.	.	.
=28	=28	=28	=28	=28	=28	=28	=28	=28	=28	=28	=28	=28	=28
8D\L	.	16d/LL	.	16dd\LL	.	2D\	u-	2a\	u-	2ff#\	u-	2d/	2a\
.	.	16a/	.	16ff#\	.	.	.	.	.	.	.	.	.
8D\	.	16f#/	.	16aa\	.	.	.	.	.	.	.	.	.
.	.	16a/JJ	.	16ff#\JJ	.	.	.	.	.	.	.	.	.
8D\	.	16d/LL	.	8dd\L	.	.	.	.	.	.	.	.	.
.	.	16a/	.	.	.	.	.	.	.	.	.	.	.
8D\	.	16f#/	.	8ddd\	.	.	.	.	.	.	.	.	.
.	.	16a/JJ	.	.	.	.	.	.	.	.	.	.	.
!	!	!LO:TX:t=P:problem=brak 3. miary w takcie	!	!	!	!	!	!	!	!	!	!	!
8D\	.	4ryy	.	8aa\	.	4D\	-ni-	4a\	-ni-	4ff#\	-ni-	4d/	4a\
8D\J	.	.	.	8ff#\J	.	.	.	.	.	.	.	.	.
!	!	!LO:LB:g=original	!	!	!	!	!	!	!	!	!	!	!
=29	=29	=29	=29	=29	=29	=29	=29	=29	=29	=29	=29	=29	=29
*Xtremolo	*	*	*	*	*	*	*	*Xtuplet	*	*	*	*	*
!LO:TX:t=P:problem=mixed beam	!	!	!	!	!	!	!	!	!	!	!	!	!
!	!	!	!	!	!	!	!	!	!	!LO:TUP:a:problem=klamra łukowa, kropka zamiast numeru	!	!	!
!	!	!	!	!LO:TUP:a:problem=klamra łukowa, kropka zamiast numeru	!	!	!	!	!	!	!	!	!
8G\L	.	12gg\L	.	12bb\L	.	(>4G\	-ge-	12b\L	-ge-	12gg\L	-ge-	4g\	4g\
.	.	12ff#\	.	12aa\	.	.	.	12a\	.	12ff#\	.	.	.
8G\	.	.	.	.	.	.	.	.	.	.	.	.	.
.	.	12ee\J	.	12gg\J	.	.	.	12g\J	.	12ee\J	.	.	.
!	!	!	!	!	!	!	!	!LO:LB:g=original	!	!	!	!	!
8A\	.	4dd\	.	4ff#\	.	4A\)	.	4f#/	-ni-	4dd\	-ni-	4a\	4a\
8A\	.	.	.	.	.	.	.	.	.	.	.	.	.
8AA/	.	4cc#Xt\	.	4eeT\	.	4AA/	-ni-	4eT/	.	4cc#Xt\	.	4a\	4a\
8AA/J	.	.	.	.	.	.	.	.	.	.	.	.	.
!LO:LB:g=original	!	!	!	!	!	!	!	!	!	!LO:LB:g=original	!	!	!
=30	=30	=30	=30	=30	=30	=30	=30	=30	=30	=30	=30	=30	=30
*tremolo	*	*	*	*	*	*	*	*	*	*	*	*	*
8D\L	.	16d/LL	.	16dd\LL	.	4D\	-te	4f#/	-te	4dd\	-te	4d/	4a\
.	.	16a/	.	16ff#\	.	.	.	.	.	.	.	.	.
8D\	.	16f#/	.	16aa\	.	.	.	.	.	.	.	.	.
.	.	16a/JJ	.	16ff#\JJ	.	.	.	.	.	.	.	.	.
8D\	.	16d/LL	.	8dd\L	.	4D\	Je-	4a\	Je-	4ff#\	Je-	4d/	4a\
.	.	16a/	.	.	.	.	.	.	.	.	.	.	.
8D\	.	16f#/	.	8ddd\	.	.	.	.	.	.	.	.	.
.	.	16a/JJ	.	.	.	.	.	.	.	.	.	.	.
8D\	.	16d/LL	.	8aa\	.	4D\	-su	4a\	-su	4ff#\	-su	4d/	4a\
.	.	16a/	.	.	.	.	.	.	.	.	.	.	.
8D\J	.	16f#/	.	8ff#\J	.	.	.	.	.	.	.	.	.
.	.	16a/JJ	.	.	.	.	.	.	.	.	.	.	.
=31	=31	=31	=31	=31	=31	=31	=31	=31	=31	=31	=31	=31	=31
*	*	*	*	*	*	*2\right	*	*	*	*	*	*	*
8G\L	.	16d/LL	.	16dd\LL	.	2G\	Je-	2b\	Je-	2gg\	Je-	2a\	2b\
.	.	16b/	.	16gg\	.	.	.	.	.	.	.	.	.
8G\	.	16g/	.	16bb\	.	.	.	.	.	.	.	.	.
.	.	16b/JJ	.	16gg\JJ	.	.	.	.	.	.	.	.	.
8G\	.	16d/LL	.	8dd\L	.	.	.	.	.	.	.	.	.
.	.	16b/	.	.	.	.	.	.	.	.	.	.	.
8G\	.	16g/	.	8ddd\	.	.	.	.	.	.	.	.	.
.	.	16b/JJ	.	.	.	.	.	.	.	.	.	.	.
8G\	.	16d/LL	.	8bb\	.	4G\	-su	4b\	-su	4gg\	-su	4g\	4b\
.	.	16b/	.	.	.	.	.	.	.	.	.	.	.
8G\J	.	16g/	.	8gg\J	.	.	.	.	.	.	.	.	.
.	.	16b/JJ	.	.	.	.	.	.	.	.	.	.	.
!	!	!	!	!	!	!LO:LB:g=original	!	!	!	!	!	!	!
=32	=32	=32	=32	=32	=32	=32	=32	=32	=32	=32	=32	=32	=32
*	*	*	*	*	*	*	*ij	*	*ij	*	*ij	*	*
8D\L	.	16d/LL	.	16dd\LL	.	2D\	Je-	2a\	Je-	2ff#\	Je-	2d/	2a\
.	.	16a/	.	16ff#\	.	.	.	.	.	.	.	.	.
8D\	.	16f#/	.	16aa\	.	.	.	.	.	.	.	.	.
.	.	16a/JJ	.	16ff#\JJ	.	.	.	.	.	.	.	.	.
8D\	.	16d/LL	.	8dd\L	.	.	.	.	.	.	.	.	.
.	.	16a/	.	.	.	.	.	.	.	.	.	.	.
8D\	.	16f#/	.	8ddd\	.	.	.	.	.	.	.	.	.
.	.	16a/JJ	.	.	.	.	.	.	.	.	.	.	.
8D\	.	16d/LL	.	8aa\	.	4D\	-su	4a\	-su	4ff#\	-su	4d/	4a\
*	*	*	*	*	*	*	*Xij	*	*Xij	*	*Xij	*	*
.	.	16a/	.	.	.	.	.	.	.	.	.	.	.
8D\J	.	16f#/	.	8ff#\J	.	.	.	.	.	.	.	.	.
.	.	16a/JJ	.	.	.	.	.	.	.	.	.	.	.
=33	=33	=33	=33	=33	=33	=33	=33	=33	=33	=33	=33	=33	=33
*Xtremolo	*	*	*	*	*	*	*	*	*	*Xtuplet	*	*	*
!LO:TX:t=P:problem=mixed beam	!	!	!	!	!	!	!	!	!	!	!	!	!
!	!	!	!	!LO:TUP:a:problem=klamra łukowa, kropka zamiast numeru	!	!	!	!	!	!	!	!	!
8G\L	.	12gg\L	.	12bb\L	.	4G\	Chri-	12b\L	Chriſ-	12gg\L	Chriſ-	4g\	4g\
.	.	12ff#\	.	12aa\	.	.	.	12a\	.	12ff#\	.	.	.
8G\	.	.	.	.	.	.	.	.	.	.	.	.	.
.	.	12ee\J	.	12gg\J	.	.	.	12g\J	.	12ee\J	.	.	.
8A\	.	4dd\	.	4ff#\	.	4A\	.	4f#/	.	4dd\	.	4a\	4a\
8A\	.	.	.	.	.	.	.	.	.	.	.	.	.
8AA/	.	4cc#Xt\	.	4eeT\	.	4AA/	.	4eT/	.	4cc#Xt\	.	4a\	4a\
8AA/J	.	.	.	.	.	.	.	.	.	.	.	.	.
!	!	!	!	!LO:LB:g=original	!	!	!	!	!	!	!	!	!LO:LB:g=original
=34	=34	=34	=34	=34	=34	=34	=34	=34	=34	=34	=34	=34	=34
!	!	!	!	!	!	!	!	!	!	!LO:TX:a:i:t=Solo.	!	!	!
!	!LO:DY:b:t=pia	!	!LO:DY:b:t=pia	!	!LO:DY:b:t=pia.	!	!	!	!	!	!	!	!
4D/	p	8dd\L	p	8dd\L	p	4D\	-ste	4f#/	-te	4dd\	-te	4d/	4a\
.	.	8dd\	.	8dd\	.	.	.	.	.	.	.	.	.
*tremolo	*	*	*	*	*	*	*	*	*	*	*	*	*
8D/L	.	8a\	.	8dd\	.	4r	.	4r	.	4aa\	Do-	4r	4r
8D/	.	8a\	.	8dd\	.	.	.	.	.	.	.	.	.
8D/	.	8a\	.	8dd\	.	4r	.	4r	.	8ff#\	-mi-	4r	4r
8D/J	.	8a\J	.	8dd\J	.	.	.	.	.	8dd\	-ne	.	.
=35	=35	=35	=35	=35	=35	=35	=35	=35	=35	=35	=35	=35	=35
*	*	*tremolo	*	*	*	*	*	*	*	*	*	*	*
8D\L	.	8a/L	.	8ccn\L	.	0.r	.	0.r	.	2ccn\	Fi-	0.r	0.r
8D\	.	8a/	.	8ccn\	.	.	.	.	.	.	.	.	.
8D\	.	8a/	.	8ccn\	.	.	.	.	.	.	.	.	.
8D\	.	8a/	.	8ccn\	.	.	.	.	.	.	.	.	.
8D\	.	8a/	.	8ccn\	.	.	.	.	.	4cc\	-li	.	.
8D\J	.	8a/J	.	8ccn\J	.	.	.	.	.	.	.	.	.
*	*	*Xtremolo	*	*Xtremolo	*	*	*	*	*	*	*	*	*
=36	=36	=36	=36	=36	=36	=36	=36	=36	=36	=36	=36	=36	=36
4D/	.	8a/L	.	(>8cc\L	.	.	.	.	.	8cc\L	u-	.	.
.	.	8cc/	.	8ee\)	.	.	.	.	.	8ee\	.	.	.
4r	.	8cc/	.	(>8ee\	.	.	.	.	.	8ee\	.	.	.
.	.	8b/	.	8dd\)	.	.	.	.	.	8dd\J	.	.	.
4D/	.	8b/	.	(>8dd\	.	.	.	.	.	8dd\	.	.	.
.	.	8a/J	.	8cc\J)	.	.	.	.	.	8cc\	-ni-	.	.
!	!	!LO:LB:g=original	!	!	!	!	!	!	!	!	!	!	!
=37	=37	=37	=37	=37	=37	=37	=37	=37	=37	=37	=37	=37	=37
4G\	.	4aT/	.	4ccT\	.	.	.	.	.	8.cc\	-ge-	.	.
.	.	.	.	.	.	.	.	.	.	16cc\	-ni-	.	.
4GG/	.	4g/	.	4b\	.	.	.	.	.	4b\	-te	.	.
!	!	!	!	!	!	!	!	!	!	!LO:LB:g=original	!	!	!
4r	.	8b/L	.	8dd\L	.	.	.	.	.	8dd\	Je-	.	.
.	.	8b/J	.	8dd\J	.	.	.	.	.	8dd\	-su	.	.
=38	=38	=38	=38	=38	=38	=38	=38	=38	=38	=38	=38	=38	=38
*	*	*tremolo	*	*tremolo	*	*	*	*	*	*	*	*	*
8C/L	.	8cc\L	.	8ee\L	.	.	.	.	.	4.ee\	Je-	.	.
8C/	.	8cc\	.	8ee\	.	.	.	.	.	.	.	.	.
8C/	.	8cc\	.	8ee\	.	.	.	.	.	.	.	.	.
8C/	.	8cc\	.	8ee\	.	.	.	.	.	8ff#\L	.	.	.
8C/	.	8cc\	.	8ee\	.	.	.	.	.	8gg\	-su	.	.
8C/J	.	8cc\J	.	8ee\J	.	.	.	.	.	8ee\J	.	.	.
=39	=39	=39	=39	=39	=39	=39	=39	=39	=39	=39	=39	=39	=39
*	*	*	*	*	*	*	*	*	*	*	*ij	*	*
8GG/L	.	8b\L	.	8dd\L	.	0.r	.	0.r	.	4.dd\	Je-	0.r	0.r
8GG/	.	8b\	.	8dd\	.	.	.	.	.	.	.	.	.
8GG/	.	8b\	.	8dd\	.	.	.	.	.	.	.	.	.
8GG/	.	8b\	.	8dd\	.	.	.	.	.	8ff#\L	.	.	.
8GG/	.	8b\	.	8dd\	.	.	.	.	.	8gg\	-su	.	.
*	*	*	*	*	*	*	*	*	*	*	*Xij	*	*
8GG/J	.	8b\J	.	8dd\J	.	.	.	.	.	8dd\J	.	.	.
*	*	*Xtremolo	*	*Xtremolo	*	*	*	*	*	*	*	*	*
=40	=40	=40	=40	=40	=40	=40	=40	=40	=40	=40	=40	=40	=40
8GG/L	.	8b/L	.	8dd\L	.	.	.	.	.	(>4dd\	Je-	.	.
8GG/	.	8b/	.	8dd\	.	.	.	.	.	.	.	.	.
8GG/	.	8a/	.	8cc\	.	.	.	.	.	4cc\)	.	.	.
8GG/	.	8a/	.	8cc\	.	.	.	.	.	.	.	.	.
8GG/	.	8g/	.	8b\	.	.	.	.	.	4b\	-su	.	.
8GG/J	.	8g/J	.	8b\J	.	.	.	.	.	.	.	.	.
=41	=41	=41	=41	=41	=41	=41	=41	=41	=41	=41	=41	=41	=41
8D/L	.	4gT/	.	4bt/	.	.	.	.	.	4bt\	Chri-	.	.
8D/	.	.	.	.	.	.	.	.	.	.	.	.	.
8AA/	.	4f#/	.	4a/	.	.	.	.	.	4a\	-ste	.	.
8FF#/J	.	.	.	.	.	.	.	.	.	.	.	.	.
4DD/	.	8r	.	8r	.	.	.	.	.	8r	.	.	.
.	.	8b\	.	8dd\	.	.	.	.	.	8dd\	Do-	.	.
!LO:LB:g=original	!	!	!	!	!	!	!	!	!	!	!	!	!
=42	=42	=42	=42	=42	=42	=42	=42	=42	=42	=42	=42	=42	=42
*	*	*	*	*tremolo	*	*	*	*	*	*	*	*	*
8C/L	.	8cc/L	.	8ee\L	.	.	.	.	.	4.ee\	.	.	.
8C/	.	8g/J	.	8ee\	.	.	.	.	.	.	.	.	.
8C/	.	8g/L	.	8ee\	.	.	.	.	.	.	.	.	.
8C/	.	8g/	.	8ee\	.	.	.	.	.	8ee\	-mi-	.	.
8C/	.	8g/	.	8ee\	.	.	.	.	.	4ee\	-ne	.	.
8C/J	.	8g/J	.	8ee\J	.	.	.	.	.	.	.	.	.
=43	=43	=43	=43	=43	=43	=43	=43	=43	=43	=43	=43	=43	=43
*	*	*tremolo	*	*	*	*	*	*	*	*	*	*	*
8C/L	.	8g/L	.	8ee\L	.	0.r	.	0.r	.	4ee\	De-	0.r	0.r
8C/	.	8g/	.	8ee\	.	.	.	.	.	.	.	.	.
8C/	.	8g/	.	8ee\	.	.	.	.	.	4ee\	-us	.	.
8C/	.	8g/	.	8ee\	.	.	.	.	.	.	.	.	.
8C/	.	8g/	.	8ee\	.	.	.	.	.	4r	.	.	.
8C/J	.	8g/J	.	8ee\J	.	.	.	.	.	.	.	.	.
=44	=44	=44	=44	=44	=44	=44	=44	=44	=44	=44	=44	=44	=44
8C/L	.	8g/L	.	8ee\L	.	.	.	.	.	8ee\L	a-	.	.
8C/	.	8g/	.	8ee\	.	.	.	.	.	8ff#\	.	.	.
8C/	.	8g/	.	8ee\	.	.	.	.	.	8gg\	.	.	.
8C/	.	8g/	.	8ee\	.	.	.	.	.	8ff#\	.	.	.
8C/	.	8g/	.	8ee\	.	.	.	.	.	8gg\J	.	.	.
8C/J	.	8g/J	.	8ee\J	.	.	.	.	.	8ee\	-gnus	.	.
!	!	!	!	!LO:LB:g=original	!	!	!	!	!	!	!	!	!
=45	=45	=45	=45	=45	=45	=45	=45	=45	=45	=45	=45	=45	=45
*Xtremolo	*	*Xtremolo	*	*Xtremolo	*	*	*	*	*	*	*	*	*
8C/L	.	8g/L	.	8ee\L	.	.	.	.	.	4ee\	De-	.	.
8C/J	.	8g/J	.	8ee\J	.	.	.	.	.	.	.	.	.
!LO:TX:t=P:problem=mixed beam	!	!	!	!	!	!	!	!	!	!	!	!	!
*	*	*tremolo	*	*tremolo	*	*	*	*	*	*	*	*	*
8G\L	.	8a/L	.	8dd\L	.	.	.	.	.	4dd\	-i	.	.
8G\	.	8a/	.	8dd\	.	.	.	.	.	.	.	.	.
8GG/	.	8a/	.	8dd\	.	.	.	.	.	4r	.	.	.
8GG/J	.	8a/J	.	8dd\J	.	.	.	.	.	.	.	.	.
!	!	!	!	!	!	!	!	!	!	!LO:LB:g=original	!	!	!
=46	=46	=46	=46	=46	=46	=46	=46	=46	=46	=46	=46	=46	=46
*tremolo	*	*	*	*	*	*	*	*	*	*	*	*	*
8D\L	.	8a/L	.	8cc\L	.	.	.	.	.	4.cc\	Fi-	.	.
8D\	.	8a/	.	8cc\	.	.	.	.	.	.	.	.	.
8D\	.	8a/	.	8cc\	.	.	.	.	.	.	.	.	.
8D\	.	8a/	.	8cc\	.	.	.	.	.	8cc\	-li-	.	.
8D\	.	8a/	.	8cc\	.	.	.	.	.	4cc\	-us	.	.
8D\J	.	8a/J	.	8cc\J	.	.	.	.	.	.	.	.	.
=47	=47	=47	=47	=47	=47	=47	=47	=47	=47	=47	=47	=47	=47
*	*	*	*	*	*	*	*	*	*	*	*ij	*	*
8D\L	.	8a/L	.	8cc\L	.	0.r	.	0.r	.	4.aa\	Fi-	0.r	0.r
8D\	.	8a/	.	8cc\	.	.	.	.	.	.	.	.	.
8D\	.	8a/	.	8cc\	.	.	.	.	.	.	.	.	.
8D\	.	8a/	.	8cc\	.	.	.	.	.	8aa\	-li-	.	.
8D\	.	8a/	.	8cc\	.	.	.	.	.	4aa\	-us	.	.
8D\J	.	8a/J	.	8cc\J	.	.	.	.	.	.	.	.	.
*	*	*	*	*	*	*	*	*	*	*	*Xij	*	*
=48	=48	=48	=48	=48	=48	=48	=48	=48	=48	=48	=48	=48	=48
8D\L	.	8a/L	.	8cc\L	.	.	.	.	.	8cc\L	Fi-	.	.
8D\	.	8a/	.	8cc\	.	.	.	.	.	8dd\	.	.	.
8D\	.	8a/	.	8cc\	.	.	.	.	.	8ee\	.	.	.
8D\	.	8a/	.	8cc\	.	.	.	.	.	8dd\	.	.	.
8D\	.	8a/	.	8cc\	.	.	.	.	.	8ee\J	-li-	.	.
8D\J	.	8a/J	.	8cc\J	.	.	.	.	.	8cc\	-us	.	.
!	!	!LO:LB:g=original	!	!	!	!	!	!	!	!	!	!	!
=49	=49	=49	=49	=49	=49	=49	=49	=49	=49	=49	=49	=49	=49
*Xtremolo	*	*Xtremolo	*	*Xtremolo	*	*	*	*	*	*	*	*	*
!LO:TX:t=P:problem=mixed beam	!	!	!	!	!	!	!	!	!	!	!	!	!
8D\L	.	8a/L	.	8cc\L	.	.	.	.	.	4ccT\	Pa-	.	.
8D\	.	8a/J	.	8cc\J	.	.	.	.	.	.	.	.	.
*	*	*tremolo	*	*tremolo	*	*	*	*	*	*	*	*	*
8G\	.	8g/L	.	8b\L	.	.	.	.	.	4b\	-tris	.	.
8G\	.	8g/	.	8b\	.	.	.	.	.	.	.	.	.
8GG/	.	8g/	.	8b\	.	.	.	.	.	8r	.	.	.
8GG/J	.	8g/J	.	8b\J	.	.	.	.	.	8dd\	Fi-	.	.
=50	=50	=50	=50	=50	=50	=50	=50	=50	=50	=50	=50	=50	=50
*tremolo	*	*	*	*	*	*	*	*	*	*	*	*	*
8GG/L	.	4.g/	.	4.b\	.	.	.	.	.	4.gg\	.	.	.
8GG/	.	.	.	.	.	.	.	.	.	.	.	.	.
8GG/	.	.	.	.	.	.	.	.	.	.	.	.	.
8GG/	.	8b/L	.	8dd\L	.	.	.	.	.	8dd\L	-li-	.	.
8GG/	.	8a/	.	8cc\	.	.	.	.	.	8cc\	-us	.	.
8GG/J	.	8g/J	.	8b\J	.	.	.	.	.	8b\J	.	.	.
=51	=51	=51	=51	=51	=51	=51	=51	=51	=51	=51	=51	=51	=51
8D\L	.	4.cc\	.	4.ee\	.	1.r	.	1.r	.	4.ee\	Fi-	1.r	1.r
8D\	.	.	.	.	.	.	.	.	.	.	.	.	.
8D\	.	.	.	.	.	.	.	.	.	.	.	.	.
8D\	.	8a/L	.	8cc\L	.	.	.	.	.	8cc\L	-li-	.	.
8D\	.	8g/	.	8b\	.	.	.	.	.	8b\	-us	.	.
8D\J	.	8f#/J	.	8a\J	.	.	.	.	.	8a\J	.	.	.
*Xtremolo	*	*	*	*tuplet	*	*	*	*	*	*tuplet	*	*	*
=52	=52	=52	=52	=52	=52	=52	=52	=52	=52	=52	=52	=52	=52
!LO:TX:t=P:problem=mixed beam	!	!	!	!	!	!	!	!	!	!	!	!	!
!	!	!	!	!LO:TUP:b:problem=klamra łukowa, kropka zamiast numeru	!	!	!	!	!	!LO:TUP:a:problem=klamra łukowa, kropka zamiast numeru	!	!	!
8G\L	.	16g/LL	.	12b/L	.	.	.	.	.	12b\L	Pa-	.	.
.	.	16g/	.	.	.	.	.	.	.	.	.	.	.
.	.	.	.	12a/	.	.	.	.	.	12a\	.	.	.
8GG/J	.	16g/	.	.	.	.	.	.	.	.	.	.	.
.	.	.	.	12g/J	.	.	.	.	.	12g\J	.	.	.
.	.	16g/JJ	.	.	.	.	.	.	.	.	.	.	.
!LO:TX:t=P:problem=mixed beam	!	!	!	!	!	!	!	!	!	!	!	!	!
8d\L	.	16f#/LL	.	16a/LL	.	.	.	.	.	2aT\	.	.	.
.	.	16f#/	.	16a/	.	.	.	.	.	.	.	.	.
8d\	.	16f#/	.	16a/	.	.	.	.	.	.	.	.	.
.	.	16f#/	.	16a/	.	.	.	.	.	.	.	.	.
8D/	.	16f#/	.	16a/	.	.	.	.	.	.	.	.	.
.	.	16f#/	.	16a/	.	.	.	.	.	.	.	.	.
8D/J	.	16f#/	.	16a/	.	.	.	.	.	.	.	.	.
.	.	16f#/JJ	.	16a/JJ	.	.	.	.	.	.	.	.	.
!LO:LB:g=original	!	!	!	!	!	!	!	!	!	!LO:LB:g=original	!	!	!
=53	=53	=53	=53	=53	=53	=53	=53	=53	=53	=53	=53	=53	=53
!	!	!	!	!LO:TX:t=P:problem=mixed beam	!	!	!	!	!	!	!	!	!
!	!	!	!	!	!LO:DY:b:t=for&colon;	!	!	!	!	!	!	!	!
4G\	.	16g/LL	.	16g/LL	f	4r	.	4r	.	4g\	-tris	4r	4r
.	.	16b/	.	16gg\	.	.	.	.	.	.	.	.	.
.	.	16b/	.	16gg\	.	.	.	.	.	.	.	.	.
.	.	16b/JJ	.	16gg\JJ	.	.	.	.	.	.	.	.	.
!	!LO:DY:b:t=for&colon;	!	!	!	!	!	!	!	!	!	!	!	!
8G\L	f	16b/LL	.	16gg\LL	.	4G\	Do-	4b\	Do-	4gg\	Do-	4g\	4g\
.	.	16b/	.	16gg\	.	.	.	.	.	.	.	.	.
8G\	.	16b/	.	16gg\	.	.	.	.	.	.	.	.	.
.	.	16b/	.	16gg\	.	.	.	.	.	.	.	.	.
8Fn\	.	16b/	.	16gg\	.	8Fn\	-mi-	8b\	-mi-	8gg\	-mi-	4g\	4g\
.	.	16b/	.	16gg\	.	.	.	.	.	.	.	.	.
8F\J	.	16b/	.	16gg\	.	8F\	-ne	8b\	-ne	8gg\	-ne	.	.
.	.	16b/JJ	.	16gg\JJ	.	.	.	.	.	.	.	.	.
!	!	!	!	!	!	!	!	!LO:LB:g=original	!	!	!	!	!
=54	=54	=54	=54	=54	=54	=54	=54	=54	=54	=54	=54	=54	=54
8E\L	.	16ccn\LL	.	16gg\LL	.	4E\	De-	2cc\	De-	2gg\	De-	2.g\	2.g\
.	.	16ccn\	.	16gg\	.	.	.	.	.	.	.	.	.
8E\	.	16ccn\	.	16gg\	.	.	.	.	.	.	.	.	.
.	.	16ccn\	.	16gg\	.	.	.	.	.	.	.	.	.
8D\	.	16ccn\	.	16gg\	.	4D\	.	.	.	.	.	.	.
.	.	16ccn\	.	16gg\	.	.	.	.	.	.	.	.	.
8D\	.	16ccn\	.	16gg\	.	.	.	.	.	.	.	.	.
.	.	16ccn\	.	16gg\	.	.	.	.	.	.	.	.	.
8C\	.	16ccn\	.	16gg\	.	4C\	-us	4cc\	-us	4gg\	-us	.	.
.	.	16ccn\	.	16gg\	.	.	.	.	.	.	.	.	.
8C\J	.	16ccn\	.	16gg\	.	.	.	.	.	.	.	.	.
.	.	16ccn\JJ	.	16gg\JJ	.	.	.	.	.	.	.	.	.
!	!	!	!	!LO:LB:g=original	!	!	!	!	!	!	!	!	!
=55	=55	=55	=55	=55	=55	=55	=55	=55	=55	=55	=55	=55	=55
8AA/L	.	16cc#X\LL	.	16aa\LL	.	4AA/	A-	2cc#X\	A-	2aa\	A-	2.a\	2.a\
.	.	16cc#X\	.	16aa\	.	.	.	.	.	.	.	.	.
8AA/J	.	16cc#X\	.	16aa\	.	.	.	.	.	.	.	.	.
.	.	16cc#X\	.	16aa\	.	.	.	.	.	.	.	.	.
8A\L	.	16cc#X\	.	16aa\	.	4A\	.	.	.	.	.	.	.
.	.	16cc#X\	.	16aa\	.	.	.	.	.	.	.	.	.
8A\	.	16cc#X\	.	16aa\	.	.	.	.	.	.	.	.	.
.	.	16cc#X\	.	16aa\	.	.	.	.	.	.	.	.	.
8G\	.	16cc#X\	.	16aa\	.	4G\	-gnus	4cc#\	-gnus	4aa\	-gnus	.	.
.	.	16cc#X\	.	16aa\	.	.	.	.	.	.	.	.	.
8G\J	.	16cc#X\	.	16aa\	.	.	.	.	.	.	.	.	.
.	.	16cc#X\JJ	.	16aa\JJ	.	.	.	.	.	.	.	.	.
!	!	!	!	!	!	!	!	!	!	!	!	!LO:LB:g=original	!
=56	=56	=56	=56	=56	=56	=56	=56	=56	=56	=56	=56	=56	=56
8F#X\L	.	16dd\LL	.	16aa\LL	.	4F#X\	De-	2a\	De-	2ff#\	De-	2.d/	2.a\
.	.	16dd\	.	16aa\	.	.	.	.	.	.	.	.	.
8F#\	.	16dd\	.	16aa\	.	.	.	.	.	.	.	.	.
.	.	16dd\	.	16aa\	.	.	.	.	.	.	.	.	.
8E\	.	16dd\	.	16aa\	.	4E\	.	.	.	.	.	.	.
.	.	16dd\	.	16aa\	.	.	.	.	.	.	.	.	.
8E\	.	16dd\	.	16aa\	.	.	.	.	.	.	.	.	.
.	.	16dd\	.	16aa\	.	.	.	.	.	.	.	.	.
8D\	.	16dd\	.	16aa\	.	4D\	-i	4a\	-i	4ff#\	-i	.	.
.	.	16dd\	.	16aa\	.	.	.	.	.	.	.	.	.
8D\J	.	16dd\	.	16aa\	.	.	.	.	.	.	.	.	.
.	.	16dd\JJ	.	16aa\JJ	.	.	.	.	.	.	.	.	.
=57	=57	=57	=57	=57	=57	=57	=57	=57	=57	=57	=57	=57	=57
*tremolo	*	*	*	*	*	*	*	*	*	*	*	*	*
8G\L	.	16b/LL	.	16gg\LL	.	2G\	Fi-	2b\	Fi-	2gg\	Fi-	2.G/	2.g\
.	.	16b/	.	16gg\	.	.	.	.	.	.	.	.	.
8G\	.	16b/	.	16gg\	.	.	.	.	.	.	.	.	.
.	.	16b/	.	16gg\	.	.	.	.	.	.	.	.	.
8G\	.	16b/	.	16gg\	.	.	.	.	.	.	.	.	.
.	.	16b/	.	16gg\	.	.	.	.	.	.	.	.	.
8G\	.	16b/	.	16gg\	.	.	.	.	.	.	.	.	.
.	.	16b/	.	16gg\	.	.	.	.	.	.	.	.	.
8G\	.	16b/	.	16gg\	.	4G\	-li-	4b\	-li-	4gg\	-li-	.	.
.	.	16b/	.	16gg\	.	.	.	.	.	.	.	.	.
8G\J	.	16b/	.	16gg\	.	.	.	.	.	.	.	.	.
.	.	16b/JJ	.	16gg\JJ	.	.	.	.	.	.	.	.	.
!	!	!	!	!	!	!LO:LB:g=original	!	!	!	!	!	!	!
=58	=58	=58	=58	=58	=58	=58	=58	=58	=58	=58	=58	=58	=58
8E\L	.	16b/LL	.	16gg\LL	.	2E\	-us	2b\	-us	2gg\	-us	2.G/	2.g\
.	.	16b/	.	16gg\	.	.	.	.	.	.	.	.	.
8E\	.	16b/	.	16gg\	.	.	.	.	.	.	.	.	.
.	.	16b/	.	16gg\	.	.	.	.	.	.	.	.	.
8E\	.	16b/	.	16gg\	.	.	.	.	.	.	.	.	.
.	.	16b/	.	16gg\	.	.	.	.	.	.	.	.	.
8E\	.	16b/	.	16gg\	.	.	.	.	.	.	.	.	.
.	.	16b/	.	16gg\	.	.	.	.	.	.	.	.	.
8E\	.	16b/	.	16gg\	.	4E\	Pa-	4b\	Pa-	4gg\	Pa-	.	.
.	.	16b/	.	16gg\	.	.	.	.	.	.	.	.	.
8E\J	.	16b/	.	16gg\	.	.	.	.	.	.	.	.	.
.	.	16b/JJ	.	16gg\JJ	.	.	.	.	.	.	.	.	.
=59	=59	=59	=59	=59	=59	=59	=59	=59	=59	=59	=59	=59	=59
8C/L	.	16b/LL	.	16gg\LL	.	2.C/	.	2.b\	.	2.gg\	.	2.G/	2.g\
.	.	16b/	.	16gg\	.	.	.	.	.	.	.	.	.
8C/	.	16b/	.	16gg\	.	.	.	.	.	.	.	.	.
.	.	16b/	.	16gg\	.	.	.	.	.	.	.	.	.
8C/	.	16b/	.	16gg\	.	.	.	.	.	.	.	.	.
.	.	16b/	.	16gg\	.	.	.	.	.	.	.	.	.
8C/	.	16b/	.	16gg\	.	.	.	.	.	.	.	.	.
.	.	16b/	.	16gg\	.	.	.	.	.	.	.	.	.
8C/	.	16b/	.	16gg\	.	.	.	.	.	.	.	.	.
.	.	16b/	.	16gg\	.	.	.	.	.	.	.	.	.
8C/J	.	16b/	.	16gg\	.	.	.	.	.	.	.	.	.
.	.	16b/JJ	.	16gg\JJ	.	.	.	.	.	.	.	.	.
!	!	!LO:LB:g=original	!	!	!	!	!	!	!	!	!	!	!
=60	=60	=60	=60	=60	=60	=60	=60	=60	=60	=60	=60	=60	=60
8D/L	.	16a/LL	.	16ff#\LL	.	2.D/	.	2.a\	.	2.ff#\	.	2.d/	2.a\
.	.	16a/	.	16ff#\	.	.	.	.	.	.	.	.	.
8D/	.	16a/	.	16ff#\	.	.	.	.	.	.	.	.	.
.	.	16a/	.	16ff#\	.	.	.	.	.	.	.	.	.
8D/	.	16a/	.	16ff#\	.	.	.	.	.	.	.	.	.
.	.	16a/	.	16ff#\	.	.	.	.	.	.	.	.	.
8D/	.	16a/	.	16ff#\	.	.	.	.	.	.	.	.	.
.	.	16a/	.	16ff#\	.	.	.	.	.	.	.	.	.
8D/	.	16a/	.	16ff#\	.	.	.	.	.	.	.	.	.
.	.	16a/	.	16ff#\	.	.	.	.	.	.	.	.	.
8D/J	.	16a/	.	16ff#\	.	.	.	.	.	.	.	.	.
.	.	16a/JJ	.	16ff#\JJ	.	.	.	.	.	.	.	.	.
=61	=61	=61	=61	=61	=61	=61	=61	=61	=61	=61	=61	=61	=61
8G\L	.	16b/LL	.	16gg\LL	.	4GG/	-tris	4b\	-tris	4gg\	-tris	2.G/	2.g\
.	.	16b/	.	16gg\	.	.	.	.	.	.	.	.	.
8G\	.	16b/	.	16gg\	.	.	.	.	.	.	.	.	.
.	.	16b/	.	16gg\	.	.	.	.	.	.	.	.	.
8G\	.	16b/	.	16gg\	.	4G\	Fi-	4b\	Fi-	4gg\	Fi-	.	.
.	.	16b/	.	16gg\	.	.	.	.	.	.	.	.	.
8G\	.	16b/	.	16gg\	.	.	.	.	.	.	.	.	.
.	.	16b/	.	16gg\	.	.	.	.	.	.	.	.	.
8G\	.	16b/	.	16gg\	.	4G\	-li-	4b\	-li-	4gg\	-li-	.	.
.	.	16b/	.	16gg\	.	.	.	.	.	.	.	.	.
8G\J	.	16b/	.	16gg\	.	.	.	.	.	.	.	.	.
.	.	16b/JJ	.	16gg\JJ	.	.	.	.	.	.	.	.	.
!LO:LB:g=original	!	!	!	!	!	!	!	!	!	!LO:LB:g=original	!	!	!
=62	=62	=62	=62	=62	=62	=62	=62	=62	=62	=62	=62	=62	=62
8E\L	.	16b/LL	.	16gg\LL	.	2E\	-us	2b\	-us	2gg\	-us	2.G/	2.g\
.	.	16b/	.	16gg\	.	.	.	.	.	.	.	.	.
8E\	.	16b/	.	16gg\	.	.	.	.	.	.	.	.	.
.	.	16b/	.	16gg\	.	.	.	.	.	.	.	.	.
8E\	.	16b/	.	16gg\	.	.	.	.	.	.	.	.	.
.	.	16b/	.	16gg\	.	.	.	.	.	.	.	.	.
8E\	.	16b/	.	16gg\	.	.	.	.	.	.	.	.	.
.	.	16b/	.	16gg\	.	.	.	.	.	.	.	.	.
8E\	.	16b/	.	16gg\	.	4E\	Pa-	4b\	Pa-	4gg\	Pa-	.	.
.	.	16b/	.	16gg\	.	.	.	.	.	.	.	.	.
8E\J	.	16b/	.	16gg\	.	.	.	.	.	.	.	.	.
.	.	16b/JJ	.	16gg\JJ	.	.	.	.	.	.	.	.	.
=63	=63	=63	=63	=63	=63	=63	=63	=63	=63	=63	=63	=63	=63
8C/L	.	16b/LL	.	16gg\LL	.	2.C/	.	2.b\	.	2.gg\	.	2.G/	2.g\
.	.	16b/	.	16gg\	.	.	.	.	.	.	.	.	.
8C/	.	16b/	.	16gg\	.	.	.	.	.	.	.	.	.
.	.	16b/	.	16gg\	.	.	.	.	.	.	.	.	.
8C/	.	16b/	.	16gg\	.	.	.	.	.	.	.	.	.
.	.	16b/	.	16gg\	.	.	.	.	.	.	.	.	.
8C/	.	16b/	.	16gg\	.	.	.	.	.	.	.	.	.
.	.	16b/	.	16gg\	.	.	.	.	.	.	.	.	.
8C/	.	16b/	.	16gg\	.	.	.	.	.	.	.	.	.
.	.	16b/	.	16gg\	.	.	.	.	.	.	.	.	.
8C/J	.	16b/	.	16gg\	.	.	.	.	.	.	.	.	.
.	.	16b/JJ	.	16gg\JJ	.	.	.	.	.	.	.	.	.
=64	=64	=64	=64	=64	=64	=64	=64	=64	=64	=64	=64	=64	=64
8D/L	.	16a/LL	.	16ff#\LL	.	2.D\	.	2.a\	.	2.ff#\	.	2.d/	2.a\
.	.	16a/	.	16ff#\	.	.	.	.	.	.	.	.	.
8D/	.	16a/	.	16ff#\	.	.	.	.	.	.	.	.	.
.	.	16a/	.	16ff#\	.	.	.	.	.	.	.	.	.
8D/	.	16a/	.	16ff#\	.	.	.	.	.	.	.	.	.
.	.	16a/	.	16ff#\	.	.	.	.	.	.	.	.	.
8D/	.	16a/	.	16ff#\	.	.	.	.	.	.	.	.	.
.	.	16a/	.	16ff#\	.	.	.	.	.	.	.	.	.
8D/	.	16a/	.	16ff#\	.	.	.	.	.	.	.	.	.
.	.	16a/	.	16ff#\	.	.	.	.	.	.	.	.	.
8D/J	.	16a/	.	16ff#\	.	.	.	.	.	.	.	.	.
.	.	16a/JJ	.	16ff#\JJ	.	.	.	.	.	.	.	.	.
*	*	*	*	*Xtremolo	*	*	*	*	*	*	*	*	*
*	*	*Xtremolo	*	*	*	*	*	*	*	*	*	*	*
*Xtremolo	*	*	*	*	*	*	*	*	*	*	*	*	*
=65	=65	=65	=65	=65	=65	=65	=65	=65	=65	=65	=65	=65	=65
!LO:TX:t=P:problem=mixed beam	!	!	!	!	!	!	!	!	!	!	!	!	!
8GG/L	.	4b 4d/	.	4gg 4b 4d/	.	4GG/	-tris.	4b\	-tris.	4gg\	-tris	4g\	4b\
8G\	.	.	.	.	.	.	.	.	.	.	.	.	.
8D\	.	4b 4d/	.	4gg 4b 4d/	.	4r	.	4r	.	4r	.	4g\	4b\
8G\	.	.	.	.	.	.	.	.	.	.	.	.	.
8BB\	.	4b 4d/	.	4gg 4b 4d/	.	4r	.	4r	.	4r	.	4g\	4b\
8D\J	.	.	.	.	.	.	.	.	.	.	.	.	.
=66	=66	=66	=66	=66	=66	=66	=66	=66	=66	=66	=66	=66	=66
!	!	!	!	!	!	!	!	!LO:TX:a:t=1.	!	!	!	!	!
2GG/	.	2b 2d/	.	2gg 2b 2d/	.	2.r	.	2.r	.	2.r	.	2g\	2b\
4r	.	4r	.	4r	.	.	.	.	.	.	.	4r	4r
==	==	==	==	==	==	==	==	==	==	==	==	==	==
*-	*-	*-	*-	*-	*-	*-	*-	*-	*-	*-	*-	*-	*-
!!!system-decoration: [(g1)][(g2)][(g3)][(s8)]
!!!RDF**kern: > = above
!!!RDF**kern: < = below
!!!ENC: Marcin Jachim
!!!END: 2020-08-19
!!!EED: Antoni Szymański
!!!EEV: 2021-11-05
